X:12
T:Sporting Nell (x4) / Fisherman's Lilt (x2) / Boy in the Boat (x3)
R:reel
M:2/2
Q:1/2=90
%
% tick
%
K:Dmix
| C8 | C4 C4 |
%
% Sporting Nell (x4)
%
% #1
K:Dmix
|: ADED A2dc | ABAG EFG2 | ADED A2dc |1 AcGE EDEG :|2 AcGE EDD2 | 
K:Amix
  cdec d2ed | cdef gedB | cdec dfed | cAGE EDD2 |
  cdec dfed | cdef g2gd | eaag efd=c | ABAG EFG2 ||
% #2
K:Dmix
|: ADED A2dc | ABAG EFG2 | ADED A2dc |1 AcGE EDEG :|2 AcGE EDD2 | 
K:Amix
  cdec d2ed | cdef gedB | cdec dfed | cAGE EDD2 |
  cdec dfed | cdef g2gd | eaag efd=c | ABAG EFG2 ||
% #3
K:Dmix
|: ADED A2dc | ABAG EFG2 | ADED A2dc |1 AcGE EDEG :|2 AcGE EDD2 | 
K:Amix
  cdec d2ed | cdef gedB | cdec dfed | cAGE EDD2 |
  cdec dfed | cdef g2gd | eaag efd=c | ABAG EFG2 ||
% #4
K:Dmix
|: ADED A2dc | ABAG EFG2 | ADED A2dc |1 AcGE EDEG :|2 AcGE EDD2 | 
K:Amix
  cdec d2ed | cdef gedB | cdec dfed | cAGE EDD2 |
  cdec dfed | cdef g2gd | eaag efd=c | ABAG EFG2 ||
%
% Fisherman's Lilt (x2)
%
K:C
% #1
|: GGGE GAcd | edcB cAAA | GEEE GAcd |1 edcB c3A :|2 edcB c3d | 
|: eggg ageg | gede cAAA | eggg eaaa | gaag a3g | 
   eggg ageg | gede cAAA | GEEE GAcd |1 edcB c3d :|2 edcB c3A |
% #2
|: GGGE GAcd | edcB cAAA | GEEE GAcd |1 edcB c3A :|2 edcB c3d | 
|: eggg ageg | gede cAAA | eggg eaaa | gaag a3g | 
   eggg ageg | gede cAAA | GEEE GAcd |1 edcB c3d :|2 edcB c3A |
%
% Boy in the Boat (x3)
%
K:D
% #1
|: ABAF DFAF | GFEF G2FG | ADED ADED | AFGE DEFG |
   ABAF DFAF | GFEF G2FG | AFA=c BGBd |1 cAGE DEFG :|2 cAGE D2d2
|: cded cAAA | cAdB cAAd | cded cAAd | cAGE EDD2 |
   cded cAAA | cAdB cAB/c/d | effd eged |1 cAGE EDD2 :|2 cAGE DEFG |
% #2
|: ABAF DFAF | GFEF G2FG | ADED ADED | AFGE DEFG |
   ABAF DFAF | GFEF G2FG | AFA=c BGBd |1 cAGE DEFG :|2 cAGE D2d2
|: cded cAAA | cAdB cAAd | cded cAAd | cAGE EDD2 |
   cded cAAA | cAdB cAB/c/d | effd eged |1 cAGE EDD2 :|2 cAGE DEFG |
% #3
|: ABAF DFAF | GFEF G2FG | ADED ADED | AFGE DEFG |
   ABAF DFAF | GFEF G2FG | AFA=c BGBd |1 cAGE DEFG :|2 cAGE D2d2
|: cded cAAA | cAdB cAAd | cded cAAd | cAGE EDD2 |
   cded cAAA | cAdB cAB/c/d | effd eged |1 cAGE EDD2 :|2 cAGE D4 |
%

